src/assets/duotone/SidebarTop.svg

<svg width="24" height="24" viewBox="0 0 24 24"  xmlns="http://www.w3.org/2000/svg">
<path opacity="0.4" d="M7.81 22H16.19C19.83 22 22 19.83 22 16.19V7.81C22 7.61 21.99 7.41 21.98 7.22C21.9 5.99 21.55 4.95 20.95 4.13C20.66 3.71 20.29 3.34 19.87 3.05C18.92 2.36 17.68 2 16.19 2H7.81C4.37 2 2.24 3.94 2.03 7.22C2.01 7.41 2 7.61 2 7.81V16.19C2 17.68 2.36 18.92 3.05 19.87C3.34 20.29 3.71 20.66 4.13 20.95C5.08 21.64 6.32 22 7.81 22Z" />
<path d="M2 8.71973H22V7.80973C22 7.60973 21.99 7.40973 21.98 7.21973H2.03C2.01 7.40973 2 7.60973 2 7.80973V8.71973Z" />
<path d="M15.3099 14.9696C15.3099 14.7796 15.2399 14.5896 15.0899 14.4396L12.5299 11.8796C12.2399 11.5896 11.7599 11.5896 11.4699 11.8796L8.90988 14.4396C8.61988 14.7296 8.61988 15.2096 8.90988 15.4996C9.19988 15.7896 9.67988 15.7896 9.96988 15.4996L11.9999 13.4796L14.0299 15.5096C14.3199 15.7996 14.7999 15.7996 15.0899 15.5096C15.2399 15.3596 15.3099 15.1696 15.3099 14.9696Z" />
</svg>

<?xml version="1.0" encoding="UTF-8"?>
<svg width="24" height="24" viewBox="0 0 24 24" xmlns="http://www.w3.org/2000/svg">
 <path d="m7.81 22h8.38c3.64 0 5.81-2.17 5.81-5.81v-8.38c0-0.2-0.01-0.4-0.02-0.59-0.08-1.23-0.43-2.27-1.03-3.09-0.29-0.42-0.66-0.79-1.08-1.08-0.95-0.69-2.19-1.05-3.68-1.05h-8.38c-3.44 0-5.57 1.94-5.78 5.22-0.02 0.19-0.03 0.39-0.03 0.59v8.38c0 1.49 0.36 2.73 1.05 3.68 0.29 0.42 0.66 0.79 1.08 1.08 0.95 0.69 2.19 1.05 3.68 1.05z" opacity=".4"/>
 <path d="m2 8.7197h20v-0.91c0-0.2-0.01-0.4-0.02-0.59h-19.95c-0.02 0.19-0.03 0.39-0.03 0.59v0.91z"/>
 <path d="m15.31 14.97c0-0.19-0.07-0.38-0.22-0.53l-2.56-2.56c-0.29-0.29-0.77-0.29-1.06 0l-2.56 2.56c-0.29 0.29-0.29 0.77 0 1.06s0.77 0.29 1.06 0l2.03-2.02 2.03 2.03c0.29 0.29 0.77 0.29 1.06 0 0.15-0.15 0.22-0.34 0.22-0.54z"/>
</svg>
